X:396
T: Beg Van Ella Gum
T: Beidh Bhean Eile 'gam (I'll Have Another Wife)
N: O'Farrell's Pocket Companion v.4 (Sky ed. p.169-70)
N: "Irish"
M: 6/8
L: 1/8
R: jig
Q: 320
K: G
G2e dBB| dBB dBA| G2e dBB| dcB AFD|
G2e dBB| dBB dBA| G2g gfe| dcB AFD :|
P:2
G3A3| B2e efg| G2G AGA| BcB AGF|
G2G AGA| BcB efg| fdf ece| dcB AFD :|
P:3
G2E EFE| E2e efg| G2E EFE| FDF AGF|
G2E EFE| E2e efg| fdf ece| dcB AFD :|
P:4
G2g dcB| dcB dcB| G2g dcB| dcB AFD|
G2g dcB| dcB dcB| G2g gfe| dcB AFD :|
P:5
B2B BGE| B/c/BA BGE| B2B BGE| BGE AFD|
B2B BGE| BGE efg| fdf ece| dcB AFD :|
